X:62
%%NRChange 2026-02-05
T:Polska från Tärnsjö
C:Trad. after Jon Erik Schedin
C:Arr. Jonny Dyer
M:3/4
L:1/16
Q:1/4=92
K:G
P:A
D4 G4 B4 | {cB} A3G FGAB c2dc | B2cB A2BA G2AG | F2GF E2E2 D4 |
{DDD}D4 G4 B4 | {cB} A3G FGAB c2dc | B2cB A2BA G2AG |1 FGAF G8 :|2 FGAF G6 B2 |
P:B
|: d3B B2B2 {c}B2AB | c3A A2A2 {B}A2GA | B2AB c3A B3G | F2GF G2GD B,2D2 |
d3B B2B2 {c}B2AB | c3A A2A2 {B}A2GA | B2AB c3A B3G |1 FGAF G6 B2 :|2 FGAF [G8 | D8] |]

